packages/core/src/svgs/tokens/branded/EFL.svg

<svg width="24" height="24" viewBox="0 0 24 24" fill="none" xmlns="http://www.w3.org/2000/svg">
<path d="M10.8207 8.84348L8.13818 8.24221L7.92818 9.04473L10.5332 9.65658C9.83701 12.5605 8.27318 18.7086 7.58941 20.0693C6.74753 21.7449 5.65125 21.5486 5.58688 21.2918C5.82338 21.2017 6.02695 21.0419 6.17069 20.8335C6.31443 20.6251 6.39156 20.378 6.39189 20.125C6.39189 19.4343 5.82939 18.8749 5.13625 18.8749C4.90119 18.8746 4.67072 18.9401 4.47107 19.0642C4.27142 19.1883 4.11058 19.3659 4.00685 19.5768C3.95255 19.6803 3.91621 19.7923 3.89935 19.908C3.88961 19.9615 3.88335 20.0156 3.8806 20.0699C3.77497 21.5355 5.25563 22 6.27439 22C10.7183 21.6599 13.3183 14.2266 14.062 10.5523L16.739 11.2059L16.9577 10.3585L14.3302 9.65658C15.4984 4.13463 16.9821 2.46398 17.8339 2.60898C18.0089 2.63898 18.144 2.70398 18.2465 2.78836C18.0056 2.92434 17.8166 3.13652 17.7092 3.39155C17.6019 3.64659 17.5824 3.93005 17.6535 4.19743C17.7248 4.46481 17.8828 4.70094 18.1029 4.86877C18.3228 5.03658 18.5923 5.12659 18.8691 5.12465C19.0505 5.125 19.2297 5.08596 19.3947 5.01022C19.5595 4.93447 19.7059 4.82384 19.8239 4.68597C19.9417 4.54808 20.0283 4.38624 20.0776 4.21163C20.1268 4.03701 20.1376 3.8538 20.109 3.67462L20.1065 3.65712C20.0738 3.47251 19.9996 3.29771 19.8896 3.14586C19.3315 2.2721 18.0283 1.98209 17.3939 2.00085C13.4771 2.16084 11.3801 6.62968 10.8207 8.84348Z" fill="url(#paint0_linear_364_5042)"/>
<defs>
<linearGradient id="paint0_linear_364_5042" x1="6.19774" y1="5.06142" x2="19.244" y2="17.8925" gradientUnits="userSpaceOnUse">
<stop stop-color="#FF9B13"/>
<stop offset="1" stop-color="#F58D0B"/>
</linearGradient>
</defs>
</svg>

<svg xmlns="http://www.w3.org/2000/svg" width="24" height="24" fill="none" viewBox="0 0 24 24">
    <path fill="url(#EFL__a)" d="m10.82 8.843-2.682-.6-.21.802 2.605.612c-.696 2.903-2.26 9.052-2.944 10.412-.841 1.676-1.938 1.48-2.002 1.223a1.25 1.25 0 0 0-.45-2.417A1.257 1.257 0 0 0 3.88 20.07C3.775 21.535 5.256 22 6.274 22c4.444-.34 7.044-7.773 7.788-11.448l2.677.654.219-.848-2.628-.701c1.168-5.522 2.652-7.193 3.504-7.048.175.03.31.095.413.18a1.25 1.25 0 0 0 .622 2.336 1.254 1.254 0 0 0 1.24-1.45l-.003-.018a1.24 1.24 0 0 0-.216-.511c-.56-.874-1.862-1.164-2.496-1.146-3.917.16-6.014 4.629-6.573 6.842"/>
    <defs>
        <linearGradient id="EFL__a" x1="6.198" x2="19.244" y1="5.061" y2="17.892" gradientUnits="userSpaceOnUse">
            <stop stop-color="#FF9B13"/>
            <stop offset="1" stop-color="#F58D0B"/>
        </linearGradient>
    </defs>
</svg>
